assets/svg/1F63D.svg

<svg xmlns="http://www.w3.org/2000/svg" viewBox="0 0 64 64" enable-background="new 0 0 64 64"><path fill="#7094a6" d="m50.07 11.12c-.987 4.131 9.01 12.754 11.915 13.448 2.908.694 1.561-8.149 1.423-13.1-.137-5.099-.018-10.257-2.922-10.951-2.908-.695-9.432 6.474-10.416 10.606"/><path fill="#eda75a" d="m50.564 14.342c-.858 3.59 7.823 11.08 10.348 11.68 2.523.604 1.352-7.07 1.234-11.378-.122-4.429-.016-8.909-2.54-9.509-2.52-.603-8.185 5.621-9.04 9.207"/><path fill="#7094a6" d="m14.474 11.12c.987 4.131-9.01 12.754-11.917 13.448-2.906.694-1.554-8.149-1.421-13.1.14-5.1.015-10.258 2.922-10.952 2.906-.694 9.43 6.475 10.416 10.607"/><path fill="#eda75a" d="m14.199 14.342c.854 3.59-7.823 11.08-10.348 11.68-2.523.604-1.351-7.07-1.234-11.378.121-4.429.012-8.909 2.536-9.509 2.524-.603 8.192 5.621 9.05 9.207"/><path fill="#87b1c1" d="m63.84 31.851c0 17.529-14.204 31.733-31.732 31.733s-31.733-14.204-31.733-31.733c0-17.524 14.204-29.726 31.732-29.726s31.733 12.202 31.733 29.726"/><path fill="#7094a6" d="m15.477 41.13c-5.626-12.07-5.272-24.03-.188-34.763-8.847 4.801-14.914 14.392-14.914 25.484 0 17.525 14.204 31.733 31.732 31.733.313 0 .613-.039.929-.047-7.274-6.125-13.405-13.49-17.559-22.407"/><g fill="#394c54"><path d="m26.694 35.892c0-2.575 2.191-2.528 5.178-2.528 2.992 0 5.648-.047 5.648 2.528 0 2.579-2.427 4.669-5.413 4.669-2.992 0-5.413-2.09-5.413-4.669"/><path d="m39.882 46.05c-.621-1.446-1.946-2.183-3.945-2.183-1.552 0-3.243.446-4.476.771l-.721.188c-.319.078-1.963 1-1.854 1.897l.192.721h.666c.108 0 .228-.016.365-.047l.6-.153c1.346-.337 2.622-.658 3.951-.658.783 0 1.45.302 1.987.897.438.482.368.769.345.862-.118.49-.882 1.074-1.901 1.462-.016.008-1.583.651-1.648 1.564l.05.615.411.235c2.309 1.324 2.262 2.179 1.966 2.774-.333.659-1.268.8-1.997.8-1.01 0-2.105-.271-2.744-.537l-.423-.082c-.8 0-2.089.96-2.23 1.658l-.071.709.568.239c.984.411 2.03.623 3.104.623h.004c1.881 0 3.802-.658 5.4-1.854 1.419-1.059 1.695-2.164 1.686-2.904-.02-.934-.501-1.87-1.379-2.709 2.209-1.317 2.911-2.96 2.094-4.888"/><path d="m24.513 9.462c-5.905-.408-11.259 2.01-14.964 6.608-1.611 1.995 1.213 4.853 2.837 2.838 3.108-3.857 7.159-5.777 12.13-5.433 2.585.179 2.568-3.836 0-4.01"/><path d="m39.701 9.09c5.903-.408 11.259 2.01 14.965 6.608 1.609 1.995-1.213 4.853-2.838 2.838-3.11-3.857-7.159-5.777-12.13-5.433-2.585.179-2.567-3.836 0-4.01"/><path d="m13.848 28.46c-.429 1.141-.165 3.047.543 3.047.813 0 3.741-2.879 6.644-2.879 3.251 0 6.467 2.879 6.646 2.879.708 0 .964-1.907.545-3.047-3.893-10.473-10.49-10.473-14.378 0"/><path d="m50.37 28.46c.43 1.141.165 3.047-.543 3.047-.813 0-3.741-2.879-6.644-2.879-3.251 0-6.467 2.879-6.646 2.879-.707 0-.966-1.907-.545-3.047 3.894-10.473 10.49-10.473 14.378 0"/></g><g fill="#5e7d89"><path d="m24.09 37.779c-.043.754-.562 1.339-1.164 1.304l-16.913-.955c-.598-.033-1.05-.672-1.01-1.429l0 0c.043-.753.564-1.339 1.162-1.306l16.915.957c.599.036 1.05.674 1.01 1.429l0 0"/><path d="m23.424 40.949c.123.709-.179 1.355-.672 1.442l-13.98 2.422c-.494.086-.996-.419-1.117-1.133l0 0c-.123-.709.179-1.356.672-1.442l13.977-2.422c.494-.087.996.423 1.12 1.133l0 0"/><path d="m40.12 37.478c.043.754.561 1.338 1.162 1.305l16.914-.956c.598-.033 1.051-.673 1.01-1.429l0 0c-.043-.753-.564-1.339-1.164-1.306l-16.913.957c-.6.035-1.051.674-1.01 1.429l0 0"/><path d="m40.791 40.647c-.123.709.179 1.355.672 1.442l13.976 2.422c.493.086.997-.42 1.121-1.133l0 0c.123-.709-.179-1.356-.673-1.442l-13.977-2.421c-.494-.087-.996.423-1.119 1.132l0 0"/></g></svg>

<?xml version="1.0" encoding="UTF-8" standalone="no"?>
<!-- Generator: Adobe Illustrator 16.0.0, SVG Export Plug-In . SVG Version: 6.00 Build 0)  -->

<svg
   xmlns:dc="http://purl.org/dc/elements/1.1/"
   xmlns:cc="http://creativecommons.org/ns#"
   xmlns:rdf="http://www.w3.org/1999/02/22-rdf-syntax-ns#"
   xmlns:svg="http://www.w3.org/2000/svg"
   xmlns="http://www.w3.org/2000/svg"
   xmlns:sodipodi="http://sodipodi.sourceforge.net/DTD/sodipodi-0.dtd"
   xmlns:inkscape="http://www.inkscape.org/namespaces/inkscape"
   version="1.1"
   id="Layer_1"
   x="0px"
   y="0px"
   width="64px"
   height="64px"
   viewBox="0 0 64 64"
   enable-background="new 0 0 64 64"
   xml:space="preserve"
   inkscape:version="0.48.5 r10040"
   sodipodi:docname="1F63D.svg"
   inkscape:export-filename="D:\TESTINGEMOJI\SVGTEST\1F63D.png"
   inkscape:export-xdpi="90"
   inkscape:export-ydpi="90"><metadata
   id="metadata5876"><rdf:RDF><cc:Work
       rdf:about=""><dc:format>image/svg+xml</dc:format><dc:type
         rdf:resource="http://purl.org/dc/dcmitype/StillImage" /><dc:title></dc:title></cc:Work></rdf:RDF></metadata><defs
   id="defs5874" /><sodipodi:namedview
   pagecolor="#ffffff"
   bordercolor="#666666"
   borderopacity="1"
   objecttolerance="10"
   gridtolerance="10"
   guidetolerance="10"
   inkscape:pageopacity="0"
   inkscape:pageshadow="2"
   inkscape:window-width="640"
   inkscape:window-height="480"
   id="namedview5872"
   showgrid="false"
   inkscape:zoom="3.6875"
   inkscape:cx="32"
   inkscape:cy="32"
   inkscape:window-x="558"
   inkscape:window-y="382"
   inkscape:window-maximized="0"
   inkscape:current-layer="Layer_1" />
<g
   id="g5792">
	<g
   id="g5794">
		<g
   id="g5796">
			<path
   fill="#7094A6"
   d="M50.07,11.121c-0.987,4.131,9.011,12.754,11.915,13.448c2.908,0.694,1.561-8.149,1.423-13.103     c-0.137-5.099-0.018-10.257-2.922-10.951C57.578-0.18,51.054,6.989,50.07,11.121z"
   id="path5798" />
		</g>
	</g>
	<g
   id="g5800">
		<g
   id="g5802">
			<path
   fill="#EDA75A"
   d="M50.564,14.342c-0.858,3.59,7.823,11.077,10.348,11.68c2.523,0.604,1.352-7.075,1.234-11.378     c-0.122-4.429-0.016-8.909-2.54-9.509C57.086,4.532,51.421,10.756,50.564,14.342z"
   id="path5804" />
		</g>
	</g>
	<g
   id="g5806">
		<g
   id="g5808">
			<path
   fill="#7094A6"
   d="M14.474,11.121c0.987,4.131-9.007,12.754-11.917,13.448c-2.906,0.694-1.554-8.149-1.421-13.103     C1.276,6.366,1.151,1.208,4.058,0.514C6.964-0.18,13.488,6.989,14.474,11.121z"
   id="path5810" />
		</g>
	</g>
	<g
   id="g5812">
		<g
   id="g5814">
			<path
   fill="#EDA75A"
   d="M14.199,14.342c0.854,3.59-7.823,11.077-10.348,11.68C1.328,26.626,2.5,18.948,2.617,14.644     c0.121-4.429,0.012-8.909,2.536-9.509C7.677,4.532,13.345,10.756,14.199,14.342z"
   id="path5816" />
		</g>
	</g>
	<g
   id="g5818">
		<g
   id="g5820">
			<path
   fill="#87B1C1"
   d="M63.84,31.851c0,17.529-14.204,31.733-31.732,31.733S0.375,49.38,0.375,31.851     c0-17.524,14.204-29.726,31.732-29.726S63.84,14.327,63.84,31.851z"
   id="path5822" />
		</g>
	</g>
	<g
   id="g5824">
		<g
   id="g5826">
			<g
   id="g5828">
				<path
   fill="#7094A6"
   d="M15.477,41.133C9.851,29.064,10.205,17.105,15.289,6.37C6.442,11.171,0.375,20.762,0.375,31.854      c0,17.525,14.204,31.733,31.732,31.733c0.313,0,0.613-0.039,0.929-0.047C25.762,57.415,19.631,50.05,15.477,41.133z"
   id="path5830" />
			</g>
		</g>
	</g>
	<g
   id="g5832">
		<g
   id="g5834">
			<path
   fill="#394C54"
   d="M26.694,35.892c0-2.575,2.191-2.528,5.178-2.528c2.992,0,5.648-0.047,5.648,2.528     c0,2.579-2.427,4.669-5.413,4.669C29.115,40.561,26.694,38.471,26.694,35.892z"
   id="path5836" />
		</g>
	</g>
	<g
   id="g5838">
		<g
   id="g5840">
			<path
   fill="#394C54"
   d="M39.882,46.052c-0.621-1.446-1.946-2.183-3.945-2.183c-1.552,0-3.243,0.446-4.476,0.771l-0.721,0.188     c-0.319,0.078-1.963,1.004-1.854,1.897l0.192,0.721h0.666c0.108,0,0.228-0.016,0.365-0.047l0.6-0.153     c1.346-0.337,2.622-0.658,3.951-0.658c0.783,0,1.45,0.302,1.987,0.897c0.438,0.482,0.368,0.769,0.345,0.862     c-0.118,0.49-0.882,1.074-1.901,1.462c-0.016,0.008-1.583,0.651-1.648,1.564l0.05,0.615l0.411,0.235     c2.309,1.324,2.262,2.179,1.966,2.774c-0.333,0.659-1.268,0.8-1.997,0.8c-1.011,0-2.105-0.271-2.744-0.537l-0.423-0.082     c-0.8,0-2.089,0.96-2.23,1.658l-0.071,0.709l0.568,0.239c0.984,0.411,2.03,0.623,3.104,0.623h0.004     c1.881,0,3.802-0.658,5.4-1.854c1.419-1.059,1.695-2.164,1.686-2.904c-0.02-0.934-0.501-1.87-1.379-2.709     C39.997,49.623,40.699,47.98,39.882,46.052z"
   id="path5842" />
		</g>
	</g>
	<path
   fill="#394C54"
   d="M24.513,9.462c-5.905-0.408-11.259,2.013-14.964,6.608c-1.611,1.995,1.213,4.853,2.837,2.838   c3.108-3.857,7.159-5.777,12.127-5.433C27.098,13.654,27.081,9.639,24.513,9.462z"
   id="path5844" />
	<path
   fill="#394C54"
   d="M39.701,9.086c5.903-0.408,11.259,2.013,14.965,6.608c1.609,1.995-1.213,4.853-2.838,2.838   c-3.11-3.857-7.159-5.777-12.127-5.433C37.116,13.278,37.134,9.263,39.701,9.086z"
   id="path5846" />
	<g
   id="g5848">
		<g
   id="g5850">
			<g
   id="g5852">
				<path
   fill="#394C54"
   d="M13.848,28.46c-0.429,1.141-0.165,3.047,0.543,3.047c0.813,0,3.741-2.879,6.644-2.879      c3.251,0,6.467,2.879,6.646,2.879c0.708,0,0.964-1.907,0.545-3.047C24.333,17.987,17.736,17.987,13.848,28.46z"
   id="path5854" />
			</g>
		</g>
		<g
   id="g5856">
			<g
   id="g5858">
				<path
   fill="#394C54"
   d="M50.368,28.46c0.43,1.141,0.165,3.047-0.543,3.047c-0.813,0-3.741-2.879-6.644-2.879      c-3.251,0-6.467,2.879-6.646,2.879c-0.707,0-0.966-1.907-0.545-3.047C39.884,17.987,46.48,17.987,50.368,28.46z"
   id="path5860" />
			</g>
		</g>
	</g>
	<g
   id="g5862">
		<path
   fill="#5E7D89"
   d="M24.09,37.779c-0.043,0.754-0.562,1.339-1.164,1.304L6.013,38.128c-0.598-0.033-1.05-0.672-1.007-1.429    l0,0c0.043-0.753,0.564-1.339,1.162-1.306l16.915,0.957C23.682,36.386,24.133,37.024,24.09,37.779L24.09,37.779z"
   id="path5864" />
		<path
   fill="#5E7D89"
   d="M23.424,40.949c0.123,0.709-0.179,1.355-0.672,1.442L8.772,44.813c-0.494,0.086-0.996-0.419-1.117-1.133    l0,0c-0.123-0.709,0.179-1.356,0.672-1.442l13.977-2.422C22.798,39.729,23.3,40.239,23.424,40.949L23.424,40.949z"
   id="path5866" />
		<path
   fill="#5E7D89"
   d="M40.125,37.478c0.043,0.754,0.561,1.338,1.162,1.305l16.914-0.956c0.598-0.033,1.051-0.673,1.008-1.429    l0,0c-0.043-0.753-0.564-1.339-1.164-1.306l-16.913,0.957C40.532,36.084,40.081,36.723,40.125,37.478L40.125,37.478z"
   id="path5868" />
		<path
   fill="#5E7D89"
   d="M40.791,40.647c-0.123,0.709,0.179,1.355,0.672,1.442l13.976,2.422c0.493,0.086,0.997-0.42,1.121-1.133    l0,0c0.123-0.709-0.179-1.356-0.673-1.442L41.91,39.515C41.416,39.428,40.914,39.938,40.791,40.647L40.791,40.647z"
   id="path5870" />
	</g>
</g>
</svg>
